packages/icons/src/icons/cursor-click.svg

<svg width="24" height="24" viewBox="0 0 24 24" fill="none" xmlns="http://www.w3.org/2000/svg">
<path d="M9 3.5V2M5.06066 5.06066L4 4M5.06066 13L4 14.0607M13 5.06066L14.0607 4M3.5 9H2M15.8645 16.1896L13.3727 20.817C13.0881 21.3457 12.9457 21.61 12.7745 21.6769C12.6259 21.7349 12.4585 21.7185 12.324 21.6328C12.1689 21.534 12.0806 21.2471 11.9038 20.6733L8.44519 9.44525C8.3008 8.97651 8.2286 8.74213 8.28669 8.58383C8.33729 8.44595 8.44595 8.33729 8.58383 8.2867C8.74213 8.22861 8.9765 8.3008 9.44525 8.44519L20.6732 11.9038C21.247 12.0806 21.5339 12.169 21.6327 12.324C21.7185 12.4586 21.7348 12.6259 21.6768 12.7745C21.61 12.9458 21.3456 13.0881 20.817 13.3728L16.1896 15.8645C16.111 15.9068 16.0717 15.9279 16.0374 15.9551C16.0068 15.9792 15.9792 16.0068 15.9551 16.0374C15.9279 16.0717 15.9068 16.111 15.8645 16.1896Z" stroke="currentColor" stroke-width="1.4" stroke-linecap="round" stroke-linejoin="round"/>
</svg>

<svg viewBox="0 0 24 24" fill="none" stroke="currentColor" xmlns="http://www.w3.org/2000/svg">
    <path d="M9 3.5V2M5.06 5.06 4 4m1.06 9L4 14.06m9-9L14.06 4M3.5 9H2m13.864 7.19-2.491 4.627c-.285.529-.427.793-.598.86a.5.5 0 0 1-.451-.044c-.155-.099-.243-.386-.42-.96L8.445 9.445c-.144-.468-.216-.703-.158-.861a.5.5 0 0 1 .297-.297c.158-.058.393.014.861.158l11.228 3.459c.574.177.86.265.96.42a.5.5 0 0 1 .044.45c-.067.172-.331.314-.86.599l-4.627 2.492c-.079.042-.118.063-.153.09a.493.493 0 0 0-.082.082c-.027.035-.048.074-.09.153Z" stroke-width="1.4" stroke-linecap="round" stroke-linejoin="round"/>
</svg>
